X:1
T:60 Lessons for 2 Guitars, Op.168 - Joseph Küffner (1776 - 1856)
T:Leçon No.60
T:60 Lessons for 2 Guitars, Op.168 "à l'usage des commençants"
T:Joseph Küffner (1776 - 1856)
%%score { ( 1 2 ) ( 3 4 ) } { ( 5 6 ) ( 7 8 ) }
L:1/8
Q:1/4=88
M:4/4
K:C
V:1 treble-8 nm="Classical Guitar"
V:2 treble-8 
V:3 tab stafflines=6 strings=E2,A2,D3,G3,B3,E4 nostems nm="Guitare classique [Tablature]"
V:4 tab stafflines=6 strings=E2,A2,D3,G3,B3,E4 nostems 
V:5 treble-8 nm="Guitare classique"
V:6 treble-8 
V:7 tab stafflines=6 strings=E2,A2,D3,G3,B3,E4 nostems nm="Guitare classique [Tablature]"
V:8 tab stafflines=6 strings=E2,A2,D3,G3,B3,E4 nostems 
V:1
S"^Marche""_" [Cc]2 [Cc]>[Cc] !>![Cc]2 [G,G]2 | [Ee]2 [Ee]>[Ee] !>![Ee]2 [Cc]2 | %2
 [Gg]2 e>c [Gg]2 e>c | G2 [G,GBg]>[G,GBg] [G,GBg]2 z2 | %4
"_" !arpeggio![Gce]2 c>G !arpeggio![Gce]2 c>G | !arpeggio![GBf]>ed>c B2"_" !arpeggio![GBg]2 | %6
 !arpeggio![Gdf]2 d>G [Gdf]2 d>G | g>fe>d c2"_" !arpeggio![egc']2 | %8
"_" [cea]2 [cea]>[cea] [cea]2 [cea]2 | [deb]2 a>b c'>ab>c' | d'2 b>g d2 !arpeggio![Ac^f]2 | %11
 !arpeggio![G,GBg]2 [G,GBg]>[G,GBg] [G,GBg]2 z2 ::"_" d2 d>d"_" !arpeggio![Bdg]3 f | %13
 e>de>f g2 e2 | d2 d>d"_" [Bdg]3 f | e>de>f"_cresc." g>ef>g | [fa]2 [fa]>[fa]"_" c'2 b>a | %17
 g2 g>f e>gf>e | d2 d>d d>fe>d | [Gc]2 [Gc]>[Gc] [Gc]2 z2!fine! :| %20
[K:F][M:4/4]"_""^V" c2 d>e f>fg>a | c'>ba>g g>c'=b>_b | a>gf>e (^cd).a.g | [Af]4 [Ge]2 z2 | %24
"_" !arpeggio![A,A^ce]2 a>g g>fe>d | e>gc'>b a>gf>e | d>ef>g a>fe>g | [Bg]4 [Af]2 z2!D.S.! :| %28
V:2
 x8 | x8 | x8 | x8 | C2 z2 C2 z2 | G,3/2 z/ z2 z2 G,2 | G,2 z2 G,2 z2 | x8 | A,2 z2 z4 | %9
 !arpeggio!^G2 z2 A,2 z2 | D2 z2 z2 D2 | x8 :: B2 B>B G3 d | c>G c>d e2 c2 | B2 B>B G3 d | %15
 c>G c>d e>c d>e | c2 c>c z4 | e2 e>d c>ed>c | G2 G>G G>dc>G | E2 E>E E2 x2 :|[K:F][M:4/4] x8 | %21
 x8 | x8 | x8 | x8 | x8 | x8 | x8 :| %28
V:3
 [!5!C,!2!C]2 [!5!C,!2!C]3/2 [!5!C,!2!C]/ [!5!C,!2!C]2 [!6!G,,!3!G,]2 | %1
 [!4!E,!1!E]2 [!4!E,!1!E]3/2 [!4!E,!1!E]/ [!4!E,!1!E]2 [!5!C,!2!C]2 | %2
 [!3!G,!1!G]2 !1!E3/2 !2!C/ [!3!G,!1!G]2 !1!E3/2 !2!C/ | %3
 !3!G,2 [!6!G,,!3!G,!2!B,!1!G]3/2 [!6!G,,!3!G,!2!B,!1!G]/ [!6!G,,!3!G,!2!B,!1!G]2 x2 | %4
 [!3!G,!2!C!1!E]2 !2!C3/2 !3!G,/ [!3!G,!2!C!1!E]2 !2!C3/2 !3!G,/ | %5
 [!3!G,!2!B,!1!F]3/2 !1!E/ !2!D3/2 !2!C/ !2!B,2 [!3!G,!2!B,!1!G]2 | %6
 [!3!G,!2!D!1!F]2 !2!D3/2 !3!G,/ [!3!G,!2!D!1!F]2 !2!D3/2 !3!G,/ | %7
 !1!G3/2 !1!F/ !1!E3/2 !2!D/ !2!C2 [!3!E!2!G!1!c]2 | %8
 [!3!C!2!E!1!A]2 [!3!C!2!E!1!A]3/2 [!3!C!2!E!1!A]/ [!3!C!2!E!1!A]2 [!3!C!2!E!1!A]2 | %9
 [!3!D!2!E!1!B]2 !1!A3/2 !1!B/ !1!c3/2 !1!A/ !1!B3/2 !1!c/ | %10
 !1!d2 !1!B3/2 !1!G/ !2!D2 [!3!A,!2!C!1!^F]2 | %11
 [!6!G,,!3!G,!2!B,!1!G]2 [!6!G,,!3!G,!2!B,!1!G]3/2 [!6!G,,!3!G,!2!B,!1!G]/ [!6!G,,!3!G,!2!B,!1!G]2 x2 :: %12
 !2!D2 !2!D3/2 !2!D/ [!3!B,!2!D!1!G]3 !1!F | !1!E3/2 !2!D/ !1!E3/2 !1!F/ !1!G2 !1!E2 | %14
 !2!D2 !2!D3/2 !2!D/ [!3!B,!2!D!1!G]3 !1!F | %15
 !1!E3/2 !2!D/ !1!E3/2 !1!F/ !1!G3/2 !1!E/ !1!F3/2 !1!G/ | %16
 [!2!F!1!A]2 [!2!F!1!A]3/2 [!2!F!1!A]/ !1!c2 !1!B3/2 !1!A/ | %17
 !1!G2 !1!G3/2 !1!F/ !1!E3/2 !1!G/ !1!F3/2 !1!E/ | %18
 !2!D2 !2!D3/2 !2!D/ !2!D3/2 !1!F/ !1!E3/2 !2!D/ | %19
 [!3!G,!2!C]2 [!3!G,!2!C]3/2 [!3!G,!2!C]/ [!3!G,!2!C]2 x2 :| %20
[K:F][M:4/4] !3!C2 !3!D3/2 !2!E/ !2!F3/2 !2!F/ !2!G3/2 !1!A/ | %21
 !1!c3/2 !1!B/ !1!A3/2 !2!G/ !2!G3/2 !1!c/ !1!=B3/2 !1!_B/ | %22
 !1!A3/2 !2!G/ !2!F3/2 !2!E/ (!3!^C !3!D) !1!A !2!G | [!4!A,!2!F]4 [!4!G,!2!E]2 x2 | %24
 [!5!A,,!4!A,!3!^C!2!E]2 !1!A3/2 !2!G/ !2!G3/2 !2!F/ !2!E3/2 !3!D/ | %25
 !2!E3/2 !2!G/ !1!c3/2 !1!B/ !1!A3/2 !2!G/ !2!F3/2 !2!E/ | %26
 !3!D3/2 !2!E/ !2!F3/2 !2!G/ !1!A3/2 !2!F/ !2!E3/2 !2!G/ | [!4!B,!2!G]4 [!4!A,!2!F]2 x2 :| %28
V:4
 x8 | x8 | x8 | x8 | !5!C,2 x2 !5!C,2 x2 | !6!G,,3/2 x/ x2 x2 !6!G,,2 | !6!G,,2 x2 !6!G,,2 x2 | %7
 x8 | !5!A,,2 x2 x4 | !4!^G,2 x2 !5!A,,2 x2 | !4!D,2 x2 x2 !4!D,2 | x8 :: %12
 !3!B,2 !3!B,3/2 !3!B,/ !4!G,3 !2!D | !2!C3/2 !3!G,/ !2!C3/2 !2!D/ !2!E2 !2!C2 | %14
 !3!B,2 !3!B,3/2 !3!B,/ !4!G,3 !2!D | !2!C3/2 !3!G,/ !2!C3/2 !2!D/ !2!E3/2 !2!C/ !2!D3/2 !2!E/ | %16
 !3!C2 !3!C3/2 !3!C/ x4 | !2!E2 !2!E3/2 !2!D/ !2!C3/2 !2!E/ !2!D3/2 !2!C/ | %18
 !3!G,2 !3!G,3/2 !3!G,/ !3!G,3/2 !2!D/ !2!C3/2 !3!G,/ | !4!E,2 !4!E,3/2 !4!E,/ !4!E,2 x2 :| %20
[K:F][M:4/4] x8 | x8 | x8 | x8 | x8 | x8 | x8 | x8 :| %28
V:5
"_" [Cc]2 [Cc]>[Cc] !>![Cc]2 [G,G]2 | [Ee]2 [Ee]>[Ee] !>![Ee]2 [Cc]2 | G2 E>C G2 E>C | %3
 z G DB,!>(! G.F.E.D!>)! |"_" EG EG EG EG | FG FG FG FG | FG FG FG FG | EG EG EG EG | %8
"_" (6:4:6z EAcEA (6:4:6z EAcEA | (6:4:6z E^GBEG (6:4:6z EAcEA | (3z GB (3z GB (3z Ac (3z Ac | %11
 G,G DB, G,2 z2 ::"_" FG DG B,G G,G | CG G,G CG G,G | FG DG B,G G,G | CG G,G z cGE | %16
 (6:4:6z AcfAc"_" (3z Ac (3z Ac | (6:4:6z GceGc (3z Gc (3z Gc | (6:4:6z DGBDG (3z DG (3z DG | %19
 (6:4:6z EGcEG C2 z2 :|[K:F][M:4/4]"_""^Trio" [FAc] z [FAc] z [FAc] z [FAc] z | %21
 [EBc] z [EBc] z [EBc] z [EBc] z | [FAc] z [FAc] z [B,Bd] z [B,Bd] z | z FAc z EGc | %24
"_" [A,EA^c] z [A,Ace] z [DAdf] z [DAdf] z | [EB=cg] z [EBcg] z [FAcf] z [A,Acf] z | %26
 [B,Bd] z [B,Bd] z [CAcf] z [CBce] z | z Bce [FAcf]2 z2 :| %28
V:6
 x8 | x8 | G,2 z2 G,2 z2 | G,4 G, z z2 | C2 C2 C2 C2 | B,2 B,2 B,2 B,2 | B,2 B,2 B,2 B,2 | %7
 C2 C2 C2 C2 | A,4 A,4 | E,4 A,4 | D2 D2 D2 D2 | x8 :: F2 D2 B,2 G,2 | C2 G,2 C2 G,2 | %14
 F2 D2 B,2 G,2 | C2 G,2 C4 | F4 F2 F2 | C4 E2 E2 | G,4 G,2 G,2 | C4 x4 :|[K:F][M:4/4] x8 | x8 | %22
 x8 | C4 C4 | x8 | x8 | x8 | C4 z4 :| %28
V:7
 [!5!C,!2!C]2 [!5!C,!2!C]3/2 [!5!C,!2!C]/ [!5!C,!2!C]2 [!6!G,,!3!G,]2 | %1
 [!4!E,!1!E]2 [!4!E,!1!E]3/2 [!4!E,!1!E]/ [!4!E,!1!E]2 [!5!C,!2!C]2 | %2
 !3!G,2 !4!E,3/2 !5!C,/ !3!G,2 !4!E,3/2 !5!C,/ | x !3!G, !4!D, !5!B,, !3!G, !4!F, !4!E, !4!D, | %4
 !4!E, !3!G, !4!E, !3!G, !4!E, !3!G, !4!E, !3!G, | %5
 !4!F, !3!G, !4!F, !3!G, !4!F, !3!G, !4!F, !3!G, | %6
 !4!F, !3!G, !4!F, !3!G, !4!F, !3!G, !4!F, !3!G, | %7
 !4!E, !3!G, !4!E, !3!G, !4!E, !3!G, !4!E, !3!G, | %8
 (6:4:6x !4!E, !3!A, !2!C !4!E, !3!A, (6:4:6x !4!E, !3!A, !2!C !4!E, !3!A, | %9
 (6:4:6x !4!E, !3!^G, !2!B, !4!E, !3!G, (6:4:6x !4!E, !3!A, !2!C !4!E, !3!A, | %10
 (3x !3!G, !2!B, (3x !3!G, !2!B, (3x !3!A, !2!C (3x !3!A, !2!C | %11
 !6!G,, !3!G, !4!D, !5!B,, !6!G,,2 x2 :: !4!F, !3!G, !4!D, !3!G, !5!B,, !3!G, !6!G,, !3!G, | %13
 !5!C, !3!G, !6!G,, !3!G, !5!C, !3!G, !6!G,, !3!G, | %14
 !4!F, !3!G, !4!D, !3!G, !5!B,, !3!G, !6!G,, !3!G, | !5!C, !3!G, !6!G,, !3!G, x !2!C !3!G, !4!E, | %16
 (6:4:6x !3!A, !2!C !1!F !3!A, !2!C (3x !3!A, !2!C (3x !3!A, !2!C | %17
 (6:4:6x !3!G, !2!C !1!E !3!G, !2!C (3x !3!G, !2!C (3x !3!G, !2!C | %18
 (6:4:6x !4!D, !3!G, !2!B, !4!D, !3!G, (3x !4!D, !3!G, (3x !4!D, !3!G, | %19
 (6:4:6x !4!E, !3!G, !2!C !4!E, !3!G, !5!C,2 x2 :| %20
[K:F][M:4/4] [!4!F,!3!A,!2!C] x [!4!F,!3!A,!2!C] x [!4!F,!3!A,!2!C] x [!4!F,!3!A,!2!C] x | %21
 [!4!E,!3!B,!2!C] x [!4!E,!3!B,!2!C] x [!4!E,!3!B,!2!C] x [!4!E,!3!B,!2!C] x | %22
 [!4!F,!3!A,!2!C] x [!4!F,!3!A,!2!C] x [!5!B,,!3!B,!2!D] x [!5!B,,!3!B,!2!D] x | %23
 x !4!F, !3!A, !2!C x !4!E, !3!G, !2!C | %24
 [!5!A,,!4!E,!3!A,!2!^C] x [!5!A,,!3!A,!2!C!1!E] x [!4!D,!3!A,!2!D!1!F] x [!4!D,!3!A,!2!D!1!F] x | %25
 [!4!E,!3!B,!2!=C!1!G] x [!4!E,!3!B,!2!C!1!G] x [!4!F,!3!A,!2!C!1!F] x [!5!A,,!3!A,!2!C!1!F] x | %26
 [!5!B,,!3!B,!2!D] x [!5!B,,!3!B,!2!D] x [!5!C,!3!A,!2!C!1!F] x [!5!C,!3!B,!2!C!1!E] x | %27
 x !3!B, !2!C !1!E [!4!F,!3!A,!2!C!1!F]2 x2 :| %28
V:8
 x8 | x8 | !6!G,,2 x2 !6!G,,2 x2 | !6!G,,4 !6!G,, x x2 | !5!C,2 !5!C,2 !5!C,2 !5!C,2 | %5
 !5!B,,2 !5!B,,2 !5!B,,2 !5!B,,2 | !5!B,,2 !5!B,,2 !5!B,,2 !5!B,,2 | !5!C,2 !5!C,2 !5!C,2 !5!C,2 | %8
 !5!A,,4 !5!A,,4 | !6!E,,4 !5!A,,4 | !4!D,2 !4!D,2 !4!D,2 !4!D,2 | x8 :: x2 x2 x2 x2 | %13
 x2 x2 x2 x2 | x2 x2 x2 x2 | x2 x2 !5!C,4 | !4!F,4 !4!F,2 !4!F,2 | !5!C,4 !4!E,2 !4!E,2 | %18
 !6!G,,4 !6!G,,2 !6!G,,2 | !5!C,4 x4 :|[K:F][M:4/4] x8 | x8 | x8 | !5!C,4 !5!C,4 | x8 | x8 | x8 | %27
 !5!C,4 x4 :| %28

